<?xml version="1.0" encoding="UTF-8"?>
<map version="1.10" tiledversion="1.12.2" orientation="orthogonal" renderorder="right-down" width="43" height="20" tilewidth="56" tileheight="56" infinite="0" nextlayerid="5" nextobjectid="86">
 <tileset firstgid="1" name="tiles-fridge" tilewidth="56" tileheight="56" tilecount="100" columns="10">
  <image source="../images/tiles-fridge.png" width="560" height="560"/>
 </tileset>
 <tileset firstgid="101" source="espinho.tsx"/>
 <objectgroup id="5" name="spawn"/>
 <objectgroup id="4" name="goal">
  <object id="67" x="336" y="224" width="56" height="336"/>
 </objectgroup>
 <objectgroup id="3" name="spikes">
  <object id="68" x="616" y="784" width="56" height="56"/>
  <object id="69" x="672" y="728" width="280" height="56"/>
  <object id="70" x="952" y="784" width="56" height="56"/>
  <object id="71" x="728" y="896" width="168" height="56"/>
  <object id="72" x="896" y="952" width="56" height="56"/>
  <object id="73" x="952" y="1008" width="56" height="56"/>
  <object id="74" x="616" y="1008" width="56" height="56"/>
  <object id="75" x="672" y="952" width="56"/>
  <object id="76" x="1232" y="1008" width="56" height="56"/>
  <object id="77" x="1288" y="952" width="56" height="56"/>
  <object id="78" x="1344" y="896" width="168" height="56"/>
  <object id="79" x="1512" y="952" width="56" height="56"/>
  <object id="80" x="1568" y="1008" width="56" height="56"/>
  <object id="81" x="1568" y="784" width="56" height="56"/>
  <object id="82" x="1288" y="728" width="280" height="56"/>
  <object id="83" x="1232" y="784" width="56" height="56"/>
  <object id="84" x="616" y="448" width="1456" height="56"/>
  <object id="85" x="616" y="280" width="1456" height="56"/>
 </objectgroup>
 <objectgroup id="2" name="walls">
  <object id="43" x="280" y="560" width="336" height="280"/>
  <object id="44" x="616" y="504" width="56" height="280"/>
  <object id="45" x="672" y="504" width="1400" height="224"/>
  <object id="46" x="952" y="728" width="336" height="56"/>
  <object id="47" x="1008" y="784" width="224" height="56"/>
  <object id="48" x="1568" y="728" width="504" height="56"/>
  <object id="49" x="1624" y="784" width="448" height="56"/>
  <object id="50" x="1344" y="952" width="168" height="56"/>
  <object id="53" x="1288" y="1008" width="280" height="112"/>
  <object id="54" x="728" y="952" width="168" height="56"/>
  <object id="55" x="672" y="1008" width="280" height="112"/>
  <object id="56" x="952" y="1064" width="336" height="56"/>
  <object id="57" x="1568" y="1064" width="840" height="56"/>
  <object id="58" x="0" y="1064" width="672"/>
  <object id="59" x="280" y="224" width="56" height="112"/>
  <object id="60" x="280" y="448" width="56" height="112"/>
  <object id="61" x="280" y="0" width="1792" height="224"/>
  <object id="62" x="616" y="224" width="1456" height="56"/>
  <object id="63" x="2072" y="0" width="336" height="56"/>
  <object id="64" x="2352" y="56" width="56" height="1008"/>
  <object id="65" x="0" y="0" width="56" height="1064"/>
  <object id="66" x="56" y="0" width="224" height="56"/>
 </objectgroup>
 <layer id="1" name="visuals" width="43" height="20">
  <data encoding="csv">
3221225524,1610612749,1610612749,1610612749,1610612749,1610612788,14,14,14,14,14,14,14,14,14,14,14,14,14,14,14,14,14,14,14,14,14,14,14,14,14,14,14,14,14,14,3221225524,1610612749,1610612749,1610612749,1610612749,1610612749,1610612788,
3221225485,41,41,41,41,13,14,14,14,14,14,14,14,14,14,14,14,14,14,14,14,14,14,14,14,14,14,14,14,14,14,14,14,14,14,14,3221225485,41,41,41,41,41,13,
3221225485,41,41,41,41,13,14,14,14,14,14,14,14,14,14,14,14,14,14,14,14,14,14,14,14,14,14,14,14,14,14,14,14,14,14,14,3221225485,41,41,41,41,41,13,
3221225485,41,41,41,41,13,1610612749,1610612749,1610612749,1610612749,1610612749,1610612788,14,14,14,14,14,14,14,14,14,14,14,14,14,14,14,14,14,14,14,14,14,14,14,14,3221225485,41,41,41,41,41,13,
3221225485,41,41,41,41,13,11,41,41,41,41,23,1610612749,1610612749,1610612749,1610612749,1610612749,1610612749,1610612749,1610612749,1610612749,1610612749,1610612749,1610612749,1610612749,1610612749,1610612749,1610612749,1610612749,1610612749,1610612749,1610612749,1610612749,1610612749,1610612749,1610612749,1610612759,41,41,41,41,41,13,
3221225485,41,41,41,41,13,11,41,41,41,41,2684354661,2684354661,2684354661,2684354661,2684354661,2684354661,2684354661,2684354661,2684354661,2684354661,2684354661,2684354661,2684354661,2684354661,2684354661,2684354661,2684354661,2684354661,2684354661,2684354661,2684354661,2684354661,2684354661,2684354661,2684354661,2684354661,41,41,41,41,41,13,
3221225485,41,41,41,41,13,11,41,41,41,41,41,41,41,41,41,41,41,41,41,41,41,41,41,41,41,41,41,41,41,41,41,41,41,41,41,41,41,41,41,41,41,13,
3221225485,41,41,41,41,13,11,41,41,41,41,41,41,41,41,41,41,41,41,41,41,41,41,41,41,41,41,41,41,41,41,41,41,41,41,41,41,41,41,41,41,41,13,
3221225485,41,41,41,41,13,11,41,41,41,41,1610612837,1610612837,1610612837,1610612837,1610612837,1610612837,1610612837,1610612837,1610612837,1610612837,1610612837,1610612837,1610612837,1610612837,1610612837,1610612837,1610612837,1610612837,1610612837,1610612837,1610612837,1610612837,1610612837,1610612837,1610612837,1610612837,41,41,41,41,41,13,
3221225485,41,41,41,41,13,11,41,41,41,41,2684354583,2684354573,2684354573,2684354573,2684354573,2684354573,2684354573,2684354573,2684354573,2684354573,2684354573,2684354573,2684354573,2684354573,2684354573,2684354573,2684354573,2684354573,2684354573,2684354573,2684354573,2684354573,2684354573,2684354573,2684354573,3221225495,41,41,41,41,41,13,
3221225485,41,41,41,41,13,2684354573,2684354573,2684354573,2684354573,2684354573,52,14,14,14,14,14,14,14,14,14,14,14,14,14,14,14,14,14,14,14,14,14,14,14,14,3221225485,41,41,41,41,41,13,
3221225485,41,41,41,41,13,14,14,14,14,14,14,14,14,14,14,14,14,14,14,14,14,14,14,14,14,14,14,14,14,14,14,14,14,14,14,3221225485,41,41,41,41,41,13,
3221225485,41,41,41,41,13,14,14,14,14,14,3221225524,1610612749,1610612749,1610612749,1610612749,1610612749,1610612788,14,14,14,14,3221225524,1610612749,1610612749,1610612749,1610612749,1610612749,1610612788,14,14,14,14,14,14,14,3221225485,41,41,41,41,41,13,
3221225485,41,41,41,41,13,14,14,14,14,3221225524,1610612759,2684354661,2684354661,2684354661,2684354661,2684354661,23,1610612788,14,14,3221225524,1610612759,2684354661,2684354661,2684354661,2684354661,2684354661,23,1610612788,14,14,14,14,14,14,3221225485,41,41,41,41,41,13,
3221225485,41,41,41,41,23,1610612749,1610612749,1610612749,1610612749,1610612759,2684354661,41,41,41,41,41,2684354661,23,1610612749,1610612749,1610612759,2684354661,41,41,41,41,41,2684354661,23,1610612749,1610612749,1610612749,1610612749,1610612749,1610612749,1610612759,41,41,41,41,41,13,
3221225485,41,41,41,41,41,41,41,41,41,41,41,41,41,41,41,41,41,41,41,41,41,41,41,41,41,41,41,41,41,41,41,41,41,41,41,41,41,41,41,41,41,13,
3221225485,41,41,41,41,41,41,41,41,41,41,41,41,1610612837,1610612837,1610612837,41,41,41,41,41,41,41,41,1610612837,1610612837,1610612837,41,41,41,41,41,41,41,41,41,41,41,41,41,41,41,13,
3221225485,41,41,41,41,41,41,41,41,41,41,41,1610612837,2684354583,2684354573,3221225495,1610612837,41,41,41,41,41,41,1610612837,2684354583,2684354573,3221225495,1610612837,41,41,41,41,41,41,41,41,41,41,41,41,41,41,13,
3221225485,41,41,41,41,41,41,41,41,41,41,1610612837,2684354583,14,14,2684354612,3221225495,1610612837,41,41,41,41,1610612837,2684354583,52,14,2684354612,3221225495,1610612837,41,41,41,41,41,41,41,41,41,41,41,41,41,13,
2684354612,2684354573,2684354573,2684354573,2684354573,2684354573,2684354573,2684354573,2684354573,2684354573,2684354573,2684354573,52,14,14,14,2684354612,2684354573,2684354573,2684354573,2684354573,3221225496,3221225496,52,14,14,14,2684354612,2684354573,2684354573,2684354573,2684354573,2684354573,2684354573,2684354573,2684354573,2684354573,2684354573,2684354573,2684354573,2684354573,2684354573,52
</data>
 </layer>
</map>
