<?xml version="1.0" encoding="UTF-8"?>
<map version="1.10" tiledversion="1.12.2" orientation="orthogonal" renderorder="right-down" width="43" height="20" tilewidth="56" tileheight="56" infinite="0" nextlayerid="5" nextobjectid="29">
 <tileset firstgid="1" name="tiles-fridge" tilewidth="56" tileheight="56" tilecount="100" columns="10">
  <image source="../images/tiles-fridge.png" width="560" height="560"/>
 </tileset>
 <objectgroup id="5" name="spawn">
  <object id="19" x="141.333" y="558.667"/>
 </objectgroup>
 <objectgroup id="4" name="goal">
  <object id="15" x="2366.67" y="516.667" width="32" height="136"/>
 </objectgroup>
 <objectgroup id="3" name="spikes">
  <object id="15" x="697.333" y="232" width="48" height="150"/>
  <object id="16" x="699.333" y="746" width="46" height="150"/>
  <object id="19" x="1706.67" y="285.333" width="72" height="550"/>
  <object id="20" x="48.6667" y="30" width="456.667" height="52"/>
  <object id="21" x="2084.67" y="246.667" width="58" height="626"/>
  <object id="22" x="1846" y="155.333" width="168" height="42"/>
  <object id="16" x="936" y="33.3333" width="360" height="33.3333"/>
  <object id="18" x="46.3332" y="1035.33" width="456.667" height="52"/>
  <object id="20" x="1849.33" y="928.333" width="168" height="42"/>
  <object id="21" x="929.333" y="1043.33" width="360" height="33.3333"/>
  <object id="22" x="945.333" y="314" width="360" height="33.3333"/>
  <object id="23" x="946.667" y="744.667" width="360" height="33.3333"/>
  <object id="24" x="2172" y="1056.67" width="192" height="33.3333"/>
  <object id="25" x="2172" y="35.3334" width="192" height="33.3333"/>
 </objectgroup>
 <objectgroup id="2" name="walls">
  <object id="5" x="340" y="224" width="384" height="676.667"/>
  <object id="7" x="0" y="1072" width="2404" height="40"/>
  <object id="8" x="2356" y="-4" width="48" height="498.667"/>
  <object id="9" x="4" y="4" width="2404" height="44"/>
  <object id="10" x="8" y="52" width="48" height="1068"/>
  <object id="12" x="649.333" y="324" width="860" height="440"/>
  <object id="13" x="1726.67" y="176" width="388" height="777.333"/>
  <object id="28" x="2360" y="674.667" width="48" height="442.667"/>
 </objectgroup>
 <layer id="1" name="visuals" width="43" height="20">
  <data encoding="csv">
14,24,24,24,24,24,24,24,24,24,24,24,24,24,24,24,24,24,24,24,24,24,24,24,24,24,24,24,24,24,24,24,24,24,24,24,24,24,24,24,24,24,14,
15,14,14,14,14,14,14,14,14,14,14,14,14,14,14,14,14,14,14,14,14,14,14,14,14,14,14,14,14,14,14,14,14,14,14,14,14,14,14,14,14,14,13,
15,14,14,14,14,14,14,14,14,14,14,14,14,14,14,14,14,14,14,14,14,14,14,14,14,14,14,14,14,14,14,14,14,14,14,14,14,14,14,14,14,14,13,
15,14,14,14,14,14,14,14,14,14,14,14,14,14,14,14,14,14,14,14,14,14,14,14,14,14,14,14,14,14,14,3,4,4,4,4,4,5,14,14,14,14,13,
15,14,14,14,14,14,3,4,4,4,4,4,5,14,14,14,14,14,14,14,14,14,14,14,14,14,14,14,14,14,14,13,14,14,14,14,14,15,14,14,14,14,13,
15,14,14,14,14,14,13,14,14,14,14,14,14,23,14,14,14,14,14,14,14,14,14,14,14,14,14,14,14,14,14,13,14,14,14,14,14,15,14,14,14,14,13,
15,14,14,14,14,14,13,14,14,14,14,14,14,4,4,4,4,4,4,4,4,4,4,4,4,4,5,14,14,14,14,13,14,14,14,14,14,15,14,14,14,14,13,
15,14,14,14,14,14,13,14,14,14,14,14,14,14,14,14,14,14,14,14,14,14,14,14,14,14,15,14,14,14,14,13,14,14,14,14,14,15,14,14,14,14,13,
15,14,14,14,14,14,13,14,14,14,14,14,14,14,14,14,14,14,14,14,14,14,14,14,14,14,15,14,14,14,14,13,14,14,14,14,14,15,14,14,14,14,13,
15,14,14,14,14,14,13,14,14,14,14,14,14,14,14,14,14,14,14,14,14,14,14,14,14,14,15,14,14,14,14,13,14,14,14,14,14,15,14,14,14,14,13,
15,14,14,14,14,14,13,14,14,14,14,14,14,14,14,14,14,14,14,14,14,14,14,14,14,14,15,14,14,14,14,13,14,14,14,14,14,15,14,14,14,14,13,
15,14,14,14,14,14,13,14,14,14,14,14,14,14,14,14,14,14,14,14,14,14,14,14,14,14,15,14,14,14,14,13,14,14,14,14,14,15,14,14,14,14,13,
15,14,14,14,14,14,13,14,14,14,14,14,14,14,14,14,14,14,14,14,14,14,14,14,14,14,15,14,14,14,14,13,14,14,14,14,14,15,14,14,14,14,13,
15,14,14,14,14,14,13,14,14,14,14,14,14,14,14,14,14,14,14,14,14,14,14,14,14,14,25,14,14,14,14,13,14,14,14,14,14,15,14,14,14,14,13,
15,14,14,14,14,14,13,14,14,14,14,14,15,3,4,4,4,4,4,4,4,4,4,4,4,4,4,14,14,14,14,13,14,14,14,14,14,15,14,14,14,14,13,
15,14,14,14,14,14,23,24,24,24,24,24,25,14,14,14,14,14,14,14,14,14,14,14,14,14,14,14,14,14,14,13,14,14,14,14,14,15,14,14,14,14,13,
15,14,14,14,14,14,14,14,14,14,14,14,14,14,14,14,14,14,14,14,14,14,14,14,14,14,14,14,14,14,14,23,24,24,24,24,24,25,14,14,14,14,13,
15,14,14,14,14,14,14,14,14,14,14,14,14,14,14,14,14,14,14,14,14,14,14,14,14,14,14,14,14,14,14,14,14,14,14,14,14,14,14,14,14,14,13,
15,14,14,14,14,14,14,14,14,14,14,14,14,14,14,14,14,14,14,14,14,14,14,14,14,14,14,14,14,14,14,14,14,14,14,14,14,14,14,14,14,14,13,
14,4,4,4,4,4,4,4,4,4,4,4,4,4,4,4,4,4,4,4,4,4,4,4,4,4,4,4,4,4,4,4,4,4,4,4,4,4,4,4,4,4,14
</data>
 </layer>
</map>
