<?xml version="1.0" encoding="UTF-8"?>
<map version="1.10" tiledversion="1.12.2" orientation="orthogonal" renderorder="right-down" width="43" height="20" tilewidth="56" tileheight="56" infinite="0" nextlayerid="5" nextobjectid="83">
 <tileset firstgid="1" name="tiles-fridge" tilewidth="56" tileheight="56" tilecount="100" columns="10">
  <image source="ballgame/Ball_Game_Final_Project/assets/images/tiles-fridge.png" width="560" height="560"/>
 </tileset>
 <tileset firstgid="101" source="ballgame/Ball_Game_Final_Project/assets/tiles/espinho.tsx"/>
 <objectgroup id="5" name="spawn">
  <object id="35" x="2268.92" y="112.583"/>
 </objectgroup>
 <objectgroup id="4" name="goal">
  <object id="30" x="81.6667" y="14.3333" width="178" height="22"/>
 </objectgroup>
 <objectgroup id="3" name="spikes">
  <object id="54" x="2296" y="392" width="56" height="168"/>
  <object id="55" x="2184" y="1008" width="168" height="56"/>
  <object id="56" x="1792" y="840" width="336" height="56"/>
  <object id="57" x="1960" y="560" width="56" height="112"/>
  <object id="58" x="1680" y="56" width="448" height="56"/>
  <object id="59" x="1680" y="280" width="56" height="280"/>
  <object id="60" x="1624" y="952" width="56" height="112"/>
  <object id="61" x="1568" y="784" width="56" height="56"/>
  <object id="62" x="1512" y="560" width="112" height="56"/>
  <object id="64" x="1288" y="840" width="112" height="56"/>
  <object id="65" x="1456" y="1008" width="112" height="56"/>
  <object id="66" x="1456" y="112" width="56" height="448"/>
  <object id="68" x="1064" y="168" width="56" height="224"/>
  <object id="69" x="1232" y="56" width="112" height="56"/>
  <object id="72" x="616" y="672" width="56" height="112"/>
  <object id="74" x="840" y="392" width="56" height="280"/>
  <object id="76" x="784" y="1008" width="336" height="56"/>
  <object id="77" x="336" y="896" width="56" height="168"/>
  <object id="78" x="448" y="448" width="56" height="112"/>
  <object id="79" x="168" y="336" width="224" height="56"/>
  <object id="81" x="56" y="56" width="56" height="112"/>
 </objectgroup>
 <objectgroup id="2" name="walls">
  <object id="29" x="2352" y="0" width="56" height="1120"/>
  <object id="32" x="280" y="0" width="2128" height="56"/>
  <object id="33" x="0" y="0" width="56" height="1120"/>
  <object id="34" x="0" y="1064" width="2408" height="56"/>
  <object id="37" x="2128" y="0" width="56" height="560"/>
  <object id="39" x="2128" y="672" width="56" height="224"/>
  <object id="40" x="1792" y="784" width="336" height="56"/>
  <object id="41" x="1568" y="840" width="56" height="224"/>
  <object id="42" x="1904" y="392" width="56" height="392"/>
  <object id="43" x="1512" y="56" width="168" height="504"/>
  <object id="44" x="1288" y="616" width="112" height="224"/>
  <object id="46" x="896" y="168" width="168" height="672"/>
  <object id="47" x="504" y="56" width="112" height="728"/>
  <object id="50" x="56" y="616" width="280" height="448"/>
  <object id="52" x="168" y="280" width="336" height="56"/>
  <object id="53" x="728" y="896" width="56" height="168"/>
 </objectgroup>
 <layer id="1" name="visuals" width="43" height="20">
  <data encoding="csv">
1,40,40,40,40,35,56,56,56,4,4,56,56,56,56,56,56,56,56,56,56,56,56,56,56,56,56,4,4,4,56,56,56,56,56,56,56,56,4,56,56,56,5,
11,101,39,39,39,39,39,39,39,13,15,39,39,39,39,39,39,39,39,39,39,39,536871013,536871013,39,39,39,13,14,15,536871013,536871013,536871013,536871013,536871013,536871013,536871013,536871013,11,39,39,39,11,
11,101,39,39,39,39,39,39,39,13,15,39,39,39,39,39,39,39,39,39,39,39,39,39,39,39,2147483749,13,14,15,39,39,39,39,39,39,39,39,11,39,39,39,11,
11,39,39,39,39,39,39,39,39,13,15,39,39,39,39,39,3,4,5,101,39,39,39,39,39,39,2147483749,13,14,15,39,39,39,39,39,39,39,39,11,39,39,39,11,
11,39,39,39,39,39,39,39,39,13,15,39,39,39,39,39,13,14,15,101,39,39,39,39,39,39,2147483749,13,14,15,39,39,39,39,39,39,39,39,11,39,39,39,11,
11,39,39,35,56,56,56,56,56,14,15,39,39,39,39,39,13,14,15,101,39,39,39,39,39,39,2147483749,13,14,15,101,39,39,39,39,39,39,39,11,39,39,39,11,
11,39,39,536871013,536871013,536871013,536871013,39,39,13,15,39,39,39,39,39,13,14,15,101,39,39,39,39,39,39,2147483749,13,14,15,101,39,39,39,39,39,39,39,11,39,39,39,11,
11,39,39,39,39,39,39,39,39,13,15,39,39,39,39,2147483749,13,14,15,39,39,39,39,39,39,39,2147483749,13,14,15,101,39,39,39,1,39,39,39,11,39,39,2147483749,11,
11,39,39,39,39,39,39,39,2147483749,13,15,39,39,39,39,2147483749,13,14,15,39,39,39,39,39,39,39,2147483749,13,14,15,101,39,39,39,11,39,39,39,11,39,39,2147483749,11,
11,39,39,39,39,39,39,39,2147483749,13,15,39,39,39,39,2147483749,13,14,15,39,39,39,39,39,39,39,2147483749,23,24,25,101,39,39,39,11,39,39,39,21,39,39,2147483749,11,
11,39,39,39,39,39,39,39,39,13,15,39,39,39,39,2147483749,13,14,15,39,39,39,39,39,39,39,39,536871013,536871013,39,39,39,39,39,11,101,39,39,39,39,39,39,11,
13,4,4,4,4,7,39,39,39,13,15,39,39,39,39,2147483749,13,14,15,39,39,39,39,3,5,39,39,39,39,39,39,39,39,39,11,101,39,39,39,39,39,39,11,
13,14,14,14,14,15,39,39,39,13,15,101,39,39,39,39,13,14,15,39,39,39,39,13,15,39,39,39,39,39,39,39,39,39,11,39,39,39,1,39,39,39,11,
13,14,14,14,14,15,39,39,39,23,25,101,39,39,39,39,13,14,15,39,39,39,39,13,15,39,39,39,39,39,39,39,39,39,11,39,39,39,11,39,39,39,11,
13,14,14,14,14,15,39,39,39,39,39,39,39,39,39,39,23,24,25,39,39,39,39,23,25,39,39,39,3758096485,39,39,39,35,56,24,56,56,56,15,39,39,39,11,
13,14,14,14,14,15,39,39,39,39,39,39,39,39,39,39,39,39,39,39,39,39,39,536871013,536871013,39,39,39,1,39,39,39,536871013,536871013,536871013,536871013,536871013,536871013,21,39,39,39,11,
13,14,14,14,14,15,101,39,39,39,39,39,39,1,39,39,39,39,39,39,39,39,39,39,39,39,39,39,11,39,39,39,39,39,39,39,39,39,39,39,39,39,11,
13,14,14,14,14,15,101,39,39,39,39,39,39,11,39,39,39,39,39,39,39,39,39,39,39,39,39,39,11,101,39,39,39,39,39,39,39,39,39,39,39,39,11,
13,14,14,14,14,15,101,40,40,40,39,39,39,11,3758096485,3758096485,3758096485,3758096485,3758096485,3758096485,39,39,39,39,39,39,3758096485,3758096485,11,101,39,39,39,39,39,39,39,39,39,3758096485,3758096485,3758096485,11,
23,24,24,24,24,24,2684354571,2684354571,2684354571,2684354571,2684354571,2684354571,2684354571,24,2684354571,2684354571,2684354571,2684354571,2684354571,2684354571,56,56,56,56,56,56,56,56,24,56,56,56,56,56,56,56,56,56,56,56,56,56,25
</data>
 </layer>
</map>
