<?xml version="1.0" encoding="UTF-8"?>
<map version="1.10" tiledversion="1.12.2" orientation="orthogonal" renderorder="right-down" width="43" height="20" tilewidth="56" tileheight="56" infinite="0" nextlayerid="5" nextobjectid="101">
 <tileset firstgid="1" name="tiles-fridge" tilewidth="56" tileheight="56" tilecount="100" columns="10">
  <image source="../images/tiles-fridge.png" width="560" height="560"/>
 </tileset>
 <tileset firstgid="101" source="espinho.tsx"/>
 <objectgroup id="4" name="goal">
  <object id="99" x="15" y="69" width="29" height="138"/>
 </objectgroup>
 <objectgroup id="4" name="spawn">
  <object id="22" x="2241.03" y="116.606" width="56" height="56"/>
 </objectgroup>
 <objectgroup id="3" name="spikes">
  <object id="25" x="2072" y="280" width="56" height="280"/>
  <object id="26" x="2296" y="504" width="56" height="336"/>
  <object id="28" x="2072" y="840" width="168" height="56"/>
  <object id="29" x="1848" y="560" width="56" height="280"/>
  <object id="31" x="1848" y="224" width="168" height="56"/>
  <object id="39" x="1512" y="280" width="56" height="224"/>
  <object id="41" x="1400" y="896" width="112" height="56"/>
  <object id="42" x="1568" y="1008" width="112" height="56"/>
  <object id="43" x="1624" y="616" width="56" height="224"/>
  <object id="48" x="1344" y="56" width="224" height="56"/>
  <object id="49" x="1232" y="168" width="56" height="112"/>
  <object id="50" x="1344" y="448" width="56" height="224"/>
  <object id="76" x="1008" y="560" width="168" height="56"/>
  <object id="77" x="1064" y="392" width="112" height="56"/>
  <object id="78" x="952" y="224" width="168" height="56"/>
  <object id="79" x="896" y="280" width="56" height="56"/>
  <object id="80" x="840" y="336" width="56" height="56"/>
  <object id="81" x="784" y="392" width="56" height="56"/>
  <object id="82" x="672" y="448" width="112" height="56"/>
  <object id="83" x="616" y="504" width="56" height="56"/>
  <object id="84" x="616" y="672" width="56" height="56"/>
  <object id="85" x="672" y="728" width="56" height="56"/>
  <object id="86" x="728" y="784" width="56" height="56"/>
  <object id="87" x="784" y="840" width="56" height="56"/>
  <object id="88" x="840" y="896" width="56" height="56"/>
  <object id="91" x="896" y="952" width="224" height="56"/>
  <object id="92" x="1064" y="728" width="56" height="168"/>
  <object id="93" x="168" y="616" width="224" height="56"/>
  <object id="94" x="56" y="336" width="56" height="168"/>
  <object id="95" x="336" y="392" width="168" height="56"/>
  <object id="96" x="392" y="224" width="56" height="56"/>
  <object id="97" x="336" y="56" width="168" height="56"/>
  <object id="98" x="168" y="168" width="56" height="56"/>
 </objectgroup>
 <objectgroup id="2" name="walls">
  <object id="17" x="0" y="1064" width="2408" height="56"/>
  <object id="19" x="0" y="0" width="2408" height="56"/>
  <object id="24" x="2352" y="5.69697" width="56" height="1114.3"/>
  <object id="33" x="1848" y="896" width="504" height="168"/>
  <object id="34" x="1680" y="560" width="168" height="504"/>
  <object id="36" x="2016" y="280" width="56" height="280"/>
  <object id="37" x="2016" y="56" width="112" height="224"/>
  <object id="38" x="1680" y="56" width="336" height="168"/>
  <object id="40" x="1400" y="224" width="112" height="672"/>
  <object id="45" x="1120" y="56" width="112" height="224"/>
  <object id="46" x="1120" y="728" width="112" height="336"/>
  <object id="47" x="952" y="448" width="280" height="112"/>
  <object id="52" x="1680" y="336" width="112" height="112"/>
  <object id="57" x="504" y="56" width="616" height="168"/>
  <object id="58" x="504" y="224" width="448" height="56"/>
  <object id="59" x="504" y="280" width="392" height="56"/>
  <object id="60" x="504" y="336" width="336" height="56"/>
  <object id="61" x="504" y="392" width="280" height="56"/>
  <object id="62" x="504" y="448" width="168" height="56"/>
  <object id="63" x="504" y="504" width="112" height="56"/>
  <object id="64" x="504" y="672" width="112" height="56"/>
  <object id="65" x="504" y="728" width="168" height="56"/>
  <object id="66" x="504" y="784" width="224" height="56"/>
  <object id="67" x="504" y="840" width="280" height="56"/>
  <object id="68" x="504" y="896" width="336" height="56"/>
  <object id="69" x="504" y="952" width="392" height="56"/>
  <object id="70" x="504" y="1008" width="448" height="56"/>
  <object id="71" x="952" y="1008" width="168" height="56"/>
  <object id="72" x="56" y="672" width="448" height="392"/>
  <object id="74" x="224" y="448" width="280" height="56"/>
  <object id="75" x="56" y="224" width="336" height="56"/>
  <object id="100" x="0" y="224" width="56" height="896"/>
 </objectgroup>
 <layer id="1" name="visuals" width="43" height="20">
  <data encoding="csv">
2684354581,2684354571,2684354571,2684354571,2684354571,2684354571,2684354571,2684354571,2684354571,4,4,4,4,4,4,4,4,4,4,4,4,4,56,56,56,56,56,56,56,56,4,4,4,4,4,4,4,4,56,56,56,56,5,
49,49,49,49,49,49,2684354661,2684354661,2684354661,13,14,14,14,14,14,14,14,14,14,14,14,15,0,0,2684354661,2684354661,2684354661,2684354661,49,49,13,14,14,14,14,14,14,15,0,49,49,49,11,
49,49,49,49,49,49,49,49,49,13,14,14,14,14,14,14,14,14,14,14,14,15,49,49,49,49,49,49,49,49,13,14,14,14,14,14,14,15,49,49,49,49,11,
49,49,49,1610612837,49,49,49,49,0,13,14,14,14,14,14,14,14,24,24,24,14,15,101,49,49,0,0,0,0,0,16,24,24,24,24,24,14,15,49,49,49,49,11,
3,2684354571,2684354571,2684354571,2684354571,2684354571,2684354561,101,0,13,14,14,14,14,14,14,17,2684354661,2684354661,2684354661,16,25,101,0,0,3,5,0,0,0,0,0,0,2684354661,2684354661,2684354661,13,17,49,49,49,49,11,
11,49,49,49,49,49,49,49,49,13,14,14,14,14,14,17,2684354661,49,49,49,49,49,49,49,49,13,15,101,49,49,49,49,49,49,49,49,11,101,49,49,49,49,11,
11,101,49,49,49,49,49,49,49,13,14,14,14,14,17,2684354661,0,49,49,49,49,49,49,49,49,13,15,101,49,49,6,7,49,49,49,49,11,101,49,49,49,49,11,
11,101,49,49,49,49,1610612837,1610612837,1610612837,13,14,14,24,17,2684354661,49,0,0,49,1610612837,1610612837,49,49,49,49,13,15,101,49,49,16,17,49,49,49,49,11,101,49,49,49,49,11,
11,101,49,49,2684354581,2684354571,2684354571,2684354571,2684354571,14,14,17,2684354661,2684354661,0,0,49,3,4,4,4,7,49,49,3221225573,13,15,101,49,49,49,49,49,49,49,49,11,101,49,49,49,49,11,
11,49,49,49,49,49,49,49,49,16,17,2684354661,49,49,49,0,0,16,24,24,24,25,49,49,3221225573,13,15,49,49,49,49,49,49,49,49,49,21,101,49,49,49,3221225573,11,
11,49,49,49,49,49,49,49,49,49,49,49,49,49,49,49,49,0,2684354661,2684354661,2684354661,49,49,49,3221225573,13,15,49,49,49,6,4,7,101,49,49,49,49,49,49,49,3221225573,11,
11,49,49,1610612837,1610612837,1610612837,1610612837,49,49,49,49,49,49,49,49,49,49,49,49,0,0,0,49,49,3221225573,13,15,49,49,3221225573,13,14,15,101,49,49,49,49,49,49,49,3221225573,11,
13,4,4,4,4,4,4,4,4,4,7,1610612837,49,49,49,49,49,49,49,0,49,0,0,0,49,13,15,49,49,3221225573,13,14,15,101,49,49,49,49,49,49,49,3221225573,11,
13,14,14,14,14,14,14,14,14,14,14,7,1610612837,49,49,49,49,49,0,3221225573,6,7,49,0,0,13,15,49,49,3221225573,13,14,15,101,49,49,49,49,49,49,49,3221225573,11,
13,14,14,14,14,14,14,14,14,14,14,14,7,1610612837,49,49,49,0,0,3221225573,13,15,0,0,0,13,15,49,49,3221225573,13,14,15,101,49,49,49,49,49,49,49,3221225573,11,
13,14,14,14,14,14,14,14,14,14,14,14,14,7,1610612837,49,49,49,49,3221225573,13,15,49,49,49,16,17,49,49,49,13,14,15,49,49,49,49,1610612837,1610612837,1610612837,49,49,11,
13,14,14,14,14,14,14,14,14,14,14,14,14,14,7,1610612837,49,49,49,49,13,15,49,49,49,2684354661,2684354661,49,49,49,13,14,14,4,4,4,4,4,4,4,4,4,15,
13,14,14,14,14,14,14,14,14,14,14,14,14,14,14,7,1610612837,1610612837,1610612837,1610612837,13,15,49,49,49,49,49,49,49,49,13,14,14,14,14,14,14,14,14,14,14,14,15,
13,14,14,14,14,14,14,14,14,14,14,14,14,14,14,14,4,4,4,4,14,15,49,49,49,49,49,49,1610612837,1610612837,13,14,14,14,14,14,14,14,14,14,14,14,15,
16,24,24,24,24,24,24,24,24,24,24,24,24,24,24,24,24,24,24,24,24,24,2684354571,2684354571,2684354571,2684354571,2684354571,2684354571,2684354571,2684354571,24,24,24,24,24,24,24,24,24,24,24,24,25
</data>
 </layer>
</map>
