<?xml version="1.0" encoding="UTF-8"?>
<map version="1.10" tiledversion="1.12.2" orientation="orthogonal" renderorder="right-down" width="43" height="20" tilewidth="56" tileheight="56" infinite="0" nextlayerid="5" nextobjectid="190">
 <tileset firstgid="1" name="tiles-fridge" tilewidth="56" tileheight="56" tilecount="100" columns="10">
  <image source="ballgame/Ball_Game_Final_Project/assets/images/tiles-fridge.png" width="560" height="560"/>
 </tileset>
 <tileset firstgid="101" source="ballgame/Ball_Game_Final_Project/assets/tiles/espinho.tsx"/>
 <objectgroup id="5" name="spawn">
  <object id="91" x="142" y="558"/>
 </objectgroup>
 <objectgroup id="4" name="goal">
  <object id="136" x="294" y="463" width="27" height="191"/>
 </objectgroup>
 <objectgroup id="3" name="spikes">
  <object id="149" x="504" y="896" width="56" height="56"/>
  <object id="150" x="560" y="952" width="56" height="56"/>
  <object id="151" x="616" y="896" width="56" height="56"/>
  <object id="152" x="952" y="840" width="56" height="56"/>
  <object id="153" x="1232" y="840" width="56" height="56"/>
  <object id="156" x="1400" y="952" width="56" height="56"/>
  <object id="157" x="1736" y="952" width="56" height="56"/>
  <object id="158" x="1568" y="896" width="56" height="56"/>
  <object id="160" x="1960" y="896" width="168" height="56"/>
  <object id="161" x="2296" y="728" width="56" height="280"/>
  <object id="162" x="168" y="728" width="56" height="168"/>
  <object id="163" x="168" y="224" width="56" height="168"/>
  <object id="164" x="56" y="56" width="168" height="56"/>
  <object id="165" x="56" y="1008" width="168" height="56"/>
  <object id="166" x="504" y="168" width="168" height="56"/>
  <object id="167" x="840" y="56" width="56" height="56"/>
  <object id="168" x="1008" y="56" width="56" height="168"/>
  <object id="169" x="1064" y="224" width="56" height="56"/>
  <object id="170" x="1232" y="280" width="56" height="112"/>
  <object id="173" x="1512" y="112" width="56" height="56"/>
  <object id="174" x="1456" y="336" width="56" height="56"/>
  <object id="175" x="1792" y="336" width="112" height="56"/>
  <object id="176" x="1904" y="168" width="112" height="56"/>
  <object id="178" x="2296" y="112" width="56" height="112"/>
  <object id="179" x="2184" y="392" width="168" height="56"/>
  <object id="180" x="2184" y="672" width="56" height="56"/>
  <object id="181" x="1792" y="560" width="56" height="56"/>
  <object id="182" x="1456" y="560" width="56" height="56"/>
  <object id="183" x="1232" y="560" width="56" height="56"/>
  <object id="184" x="1008" y="448" width="56" height="56"/>
  <object id="185" x="616" y="448" width="56" height="224"/>
  <object id="186" x="672" y="280" width="112" height="56"/>
  <object id="187" x="672" y="784" width="112" height="56"/>
  <object id="188" x="392" y="672" width="56" height="56"/>
  <object id="189" x="392" y="392" width="56" height="56"/>
 </objectgroup>
 <objectgroup id="2" name="walls">
  <object id="86" x="0" y="1064" width="2408" height="56"/>
  <object id="87" x="2352" y="0" width="56" height="1120"/>
  <object id="88" x="0" y="0" width="2408" height="56"/>
  <object id="90" x="0" y="56" width="56" height="1064"/>
  <object id="101" x="224" y="224" width="56" height="672"/>
  <object id="105" x="280" y="672" width="56" height="224"/>
  <object id="106" x="280" y="224" width="56" height="224"/>
  <object id="110" x="448" y="672" width="168" height="56"/>
  <object id="111" x="448" y="392" width="168" height="56"/>
  <object id="116" x="784" y="224" width="56" height="224"/>
  <object id="117" x="784" y="672" width="56" height="224"/>
  <object id="118" x="560" y="448" width="56" height="224"/>
  <object id="119" x="336" y="224" width="448" height="56"/>
  <object id="120" x="336" y="840" width="448" height="56"/>
  <object id="121" x="840" y="392" width="1120" height="56"/>
  <object id="122" x="840" y="672" width="1120" height="56"/>
  <object id="123" x="1904" y="224" width="56" height="168"/>
  <object id="124" x="1904" y="728" width="56" height="168"/>
  <object id="125" x="1960" y="840" width="168" height="56"/>
  <object id="126" x="1960" y="224" width="168" height="56"/>
  <object id="128" x="2184" y="448" width="168" height="56"/>
  <object id="129" x="2184" y="616" width="168" height="56"/>
  <object id="130" x="1736" y="560" width="56" height="112"/>
  <object id="131" x="1456" y="448" width="56" height="112"/>
  <object id="133" x="1120" y="560" width="112" height="112"/>
  <object id="134" x="952" y="448" width="56" height="112"/>
  <object id="137" x="1064" y="56" width="56" height="168"/>
  <object id="138" x="1288" y="168" width="112" height="224"/>
  <object id="140" x="1568" y="112" width="112" height="168"/>
  <object id="142" x="560" y="896" width="56" height="56"/>
  <object id="143" x="1232" y="728" width="56" height="112"/>
  <object id="145" x="1568" y="728" width="56" height="168"/>
  <object id="147" x="1736" y="1008" width="56" height="56"/>
  <object id="148" x="952" y="896" width="56" height="168"/>
  <object id="155" x="1400" y="1008" width="56" height="56"/>
 </objectgroup>
 <layer id="1" name="visuals" width="43" height="20">
  <data encoding="csv">
3,56,56,56,56,56,56,56,56,56,56,56,56,56,56,56,56,56,56,2684354587,56,56,56,56,56,56,56,56,56,56,56,56,56,56,56,56,56,56,56,56,56,56,7,
11,2684354661,2684354661,2684354661,48,48,48,48,48,48,48,48,48,48,48,2684354661,48,48,3221225573,11,48,48,48,48,48,48,48,48,48,48,48,48,48,48,48,48,48,48,48,48,48,48,11,
11,48,48,48,48,48,48,48,48,48,48,48,48,48,48,48,48,48,3221225573,11,48,48,48,48,48,48,48,3221225573,3,7,48,48,48,48,48,48,48,48,48,48,48,3221225573,11,
11,48,48,48,48,48,48,48,48,1610612837,1610612837,1610612837,48,48,48,48,48,48,3221225573,21,48,48,48,3,7,48,48,48,13,15,48,48,48,48,1610612837,1610612837,48,48,48,48,48,3221225573,11,
11,48,48,3221225573,3,4,56,56,56,56,56,56,56,56,7,48,48,48,48,2684354661,48,48,48,13,15,48,48,48,23,25,48,48,48,48,3,56,56,37,48,48,48,48,11,
11,48,48,3221225573,13,15,48,48,48,48,48,48,2684354661,2684354661,11,48,48,48,48,48,48,48,3221225573,13,15,48,48,48,48,48,48,48,48,48,11,48,48,48,48,48,48,48,11,
11,48,48,3221225573,13,15,48,48,48,48,48,48,48,48,11,48,48,48,48,48,48,48,3221225573,13,15,48,1610612837,48,48,48,48,48,1610612837,1610612837,11,48,48,48,48,48,48,48,11,
11,48,48,48,13,25,48,3221225573,35,56,1610612793,48,48,48,23,56,56,4,56,56,56,56,56,24,24,56,4,56,56,56,56,56,56,56,57,48,48,48,48,1610612837,1610612837,1610612837,11,
11,48,48,48,11,48,48,48,48,48,11,101,48,48,48,48,48,11,101,48,48,48,48,48,48,48,11,48,48,48,48,48,48,48,48,48,48,48,48,35,56,56,29,
11,48,48,48,11,48,48,48,48,48,11,101,48,48,48,48,48,21,48,48,48,48,48,48,48,48,21,48,48,48,48,48,48,48,48,48,48,48,48,48,48,48,11,
11,48,48,48,11,48,48,48,48,48,11,101,48,48,48,48,48,48,48,48,3,5,101,48,48,48,2684354661,48,48,48,48,1,101,48,48,48,48,48,48,48,48,48,11,
11,48,48,48,11,48,48,48,48,48,11,101,48,48,48,48,48,48,48,48,13,15,48,48,48,48,48,48,48,48,48,11,48,48,48,48,48,48,48,35,56,56,29,
11,48,48,48,13,5,48,3221225573,35,56,57,48,48,48,3221225529,56,56,56,56,56,24,24,2684354587,56,56,56,56,56,1610612765,56,56,2684354589,56,56,1610612793,48,48,48,48,2684354661,48,48,11,
11,48,48,3221225573,13,15,48,48,48,48,48,48,48,48,11,48,48,48,48,48,48,48,11,48,48,48,48,48,11,48,48,48,48,48,11,48,48,48,48,48,48,3221225573,11,
11,48,48,3221225573,13,15,48,48,48,48,48,48,1610612837,1610612837,11,48,48,48,48,48,48,48,21,48,48,48,48,48,11,48,48,48,48,48,11,48,48,48,48,48,48,3221225573,11,
11,48,48,3221225573,23,24,56,56,56,56,2684354587,56,56,56,57,48,48,1610612837,48,48,48,48,2684354661,48,48,48,48,48,21,48,48,48,48,48,2684354617,56,56,37,48,48,48,3221225573,11,
11,48,48,48,48,48,48,48,48,2684354661,21,2684354661,48,48,48,48,48,1,48,48,48,48,48,48,48,48,48,48,2684354661,48,48,48,48,48,48,2684354661,2684354661,2684354661,48,48,48,3221225573,11,
11,48,48,48,48,48,48,48,48,48,2684354661,48,48,48,48,48,48,11,48,48,48,48,48,48,48,1610612837,48,48,48,48,48,1610612837,48,48,48,48,48,48,48,48,48,3221225573,11,
11,1610612837,1610612837,1610612837,48,48,48,48,48,48,48,48,48,48,48,48,48,11,48,48,48,48,48,48,48,1,48,48,48,48,48,1,48,48,48,48,48,48,48,48,48,48,11,
23,56,56,56,56,56,56,56,56,56,56,56,56,56,56,56,56,24,56,56,56,56,56,56,56,24,56,56,56,56,56,24,56,56,56,56,56,56,56,56,56,56,57
</data>
 </layer>
</map>
